X:146
T:French Quick Step,A. JGi.146
M:6/8
L:1/8
Q:3/8=120
S:Joshua Gibbons MS,1823,Tealby,Lincs.
R:quick step
O:Tealby,Lincolnshire
Z:VMP/R.Greig, 2009
K:C
G|c2c cde|g2fd2d|egec2c|ded dBG|
c2c cde|g2fd2d|egc deB|c2cc2:|
|:G|G3G>EG|c3cBc|d3dcd|e3d2G|
G3GEG|c3cBc|ecB cBG|GGGG2:|

